X: 38747
T: String Trader, The
R: reel
M: 4/4
K: Eminor
GEED EFGA|Beed BAGB|ABAF AdBA|Beed BAGF|
GEED EFGA|Beed BAGB|ABAF AdBA|BEED E4:|
efed efga|beed egfe|d2dB ABde|faaf gfed|
efed efga|beed egfe|d2dB ABdB|AFED E4:|

